X:562
T:Ton, The 
C:Joe Buchanan's Scottish Tome - Page 147.1
I:147 1
Z:Carl Allison
C:AKA Jessie's Hornpipe
R:Reel
L:1/8
M:4/4
K:G
B/c/ |: "G"de gB/c/ | "G"Bd dB/A/ | "Em"GG "D7"AA | "G"B/A/B/c/ BB/c/ |
"G"dg gB/E/ | "Em"Bd "Bm"dB/A/ | "C"GG "D7"A/G/A/B/ | "G"G3 G :|
B/c/ |: "G"dg "C"ec | "G"dg "C"ec | "G"d>B "Em"GB | "A7"A/G/A/B/ "D7"AB/c/ |
"G"dg "C"ec | "G7"dg "C"ec | "G"B/d/B/G/ "D7"A/c/A/F/ | "G"G G :|

